dist/img/icons/Header/ios-plus-outline.svg

<svg width="35" height="35" viewBox="0 0 35 35" fill="none" xmlns="http://www.w3.org/2000/svg">
<path d="M6.5625 17.5H13.125V19.6875H6.5625V17.5ZM6.5625 13.125H17.5V15.3125H6.5625V13.125ZM6.5625 8.75H17.5V10.9375H6.5625V8.75Z" fill="#721BE3"/>
<path d="M15.3125 28.4375H4.375V6.5625H30.625V17.5H32.8125V6.5625C32.8125 5.98234 32.582 5.42594 32.1718 5.0157C31.7616 4.60547 31.2052 4.375 30.625 4.375H4.375C3.79484 4.375 3.23844 4.60547 2.8282 5.0157C2.41797 5.42594 2.1875 5.98234 2.1875 6.5625V28.4375C2.1875 29.0177 2.41797 29.5741 2.8282 29.9843C3.23844 30.3945 3.79484 30.625 4.375 30.625H15.3125V28.4375Z" fill="#721BE3"/>
<path d="M24.0625 27.9891L21.2297 25.1562L19.6875 26.6984L24.0625 31.0734L32.8125 22.3234L31.2703 20.7812L24.0625 27.9891Z" fill="#721BE3"/>
</svg>

<svg width="35" height="35" fill="none" xmlns="http://www.w3.org/2000/svg"><path d="M6.563 17.5h6.562v2.188H6.562V17.5Zm0-4.375H17.5v2.188H6.562v-2.188Zm0-4.375H17.5v2.188H6.562V8.75Z" fill="#721BE3"/><path d="M15.313 28.438H4.374V6.563h26.25V17.5h2.188V6.562a2.188 2.188 0 0 0-2.188-2.187H4.375a2.188 2.188 0 0 0-2.188 2.188v21.875a2.187 2.187 0 0 0 2.188 2.187h10.938v-2.188Z" fill="#721BE3"/><path d="m24.063 27.99-2.833-2.834-1.543 1.542 4.375 4.375 8.75-8.75-1.542-1.542-7.207 7.208Z" fill="#721BE3"/></svg>
